X:1
T:Gethsemane (Dykes), 77.77.77
T:Gethsemane (Dykes), 77.77.77
T:John Bacchus Dykes (1823-1876)
T:Public Domain Courtesy of the Cyber Hymnal™
C:John Bacchus Dykes (1823-1876)
Z:Public Domain
Z:Courtesy of the Cyber Hymnal™
%%score ( 1 2 ) ( 3 4 )
L:1/8
Q:1/4=113
M:4/4
K:Eb
V:1 treble 
V:2 treble 
V:3 bass 
V:4 bass 
V:1
 [EG]2 [_DG]2 [CG]3 [CF] | [B,E]2 [=A,E]2 [B,D]4 | (EG) [EB]2 [Ec]2 [EB]2 | B2 E2 ([EG]2 [DF]2) | %4
 [DF]2 F2 [FA]3 [FA] | [CE]2 E2 [EG]4 | [EG]2 [EG]2 [EF]2 [DB]2 x2 | [GB]2 =A2 B2 _A2 | %8
 [EG]2 [_DG]2 [CG]3 [CF] | [B,E]2 [=A,E]2 [B,D]4 | (EG) z (E A) [Cc]2 x | E2 (G>F) E4 |] %12
V:2
 x8 | x8 | G,2 x6 | (ED) E2 x4 | x2 F2 x4 | x2 E2 x4 | x10 | x2 (FE) (EDCD) | x8 | x8 | %10
 B,3 (B2 _D) C2 | (G,B,) D2 E4 |] %12
V:3
 [E,B,]2 [E,B,]2 [A,,A,]3 [A,,A,] | [B,,G,]2 [C,F,]2 [B,,F,]4 | [C,E,]2 [B,,G,]2 A,2 [E,G,]2 | %3
 [F,A,]2 ([G,B,][A,C]) [B,,B,]4 | [B,D]2 [B,_D]2 [F,C]3 [G,C] | [A,C]2 [A,_C]2 [E,B,]4 | %6
 [E,B,]2 [C,B,]2 =A,2 z x3 | [E,C]2 [F,C]2 [B,,B,]4 | [E,B,]2 [E,B,]2 [A,,A,]3 [A,,A,] | %9
 [B,,G,]2 (F,E,) F,4 | [G,,E,]2 [G,,E,]2 [A,,E,]3 [=A,,F,] | [B,,G,]2 [B,,A,]2 [E,G,]4 |] %12
V:4
 x8 | x8 | x4 (A,,C,) x2 | x8 | x8 | x8 | x4 F,3 (B,2 G,) | x8 | x8 | x2 C,2 (B,,2 A,,2) | x8 | %11
 x8 |] %12

